X:203
T:A West Ocean Waltz
M:3/4
L:1/8
C:Maire Breathnach
S:Maire Breathnach
D:Angels' Candles
K:D
F3B A>F|E4 F>E|D2B,2A,2|D4 (3A,B,D|1E3D F>D|\
E4 D>E|FB3 A>F|E6:|2E3F E>D|B,D4B,|A,2 (3B,DF E>D|\
D4 (3EFA|:B2 B>AB>c|d2 B3A|F2 D3E|F>GFE D2|B2 B>AB>c|\
d2 B3F|A3d A>F|E6|{DE}F2 A2 B>A|A2 F>E D2|Bd3 e>d|\
f4 e>d|B2 d2 (3FED|FA2A, (3B,DE|F3G E2|D6:|
